lib/flags/hn-honduras.svg

<svg xmlns="http://www.w3.org/2000/svg" fill="none" aria-hidden="true" viewBox="0 0 42 30"><g id="Country=HN - Honduras, Size=sm (36x24)" filter="url(#filter0_dd_91_27723)"><g clip-path="url(#clip0_91_27723)"><g id="flag"><mask id="mask0_91_27723" width="36" height="24" x="3" y="2" maskUnits="userSpaceOnUse" style="mask-type:alpha"><rect id="mask" width="36" height="24" x="3" y="2" fill="white"/></mask><g mask="url(#mask0_91_27723)"><g id="contents"><path id="background" fill="#F7FCFF" fill-rule="evenodd" d="M3 2V26H39V2H3Z" clip-rule="evenodd"/><mask id="mask1_91_27723" width="36" height="24" x="3" y="2" maskUnits="userSpaceOnUse" style="mask-type:alpha"><path id="background_2" fill="white" fill-rule="evenodd" d="M3 2V26H39V2H3Z" clip-rule="evenodd"/></mask><g mask="url(#mask1_91_27723)"><path id="top" fill="#4564F9" fill-rule="evenodd" d="M3 2V10H39V2H3Z" clip-rule="evenodd"/><path id="bottom" fill="#4564F9" fill-rule="evenodd" d="M3 18V26H39V18H3Z" clip-rule="evenodd"/><g id="mark"><path id="Star 10" fill="#4564F9" fill-rule="evenodd" d="M21.4524 14.6708L20.4775 15.118L20.6637 14.1708L19.875 13.4309H20.9649L21.4524 12.5L21.9398 13.4309H23.0298L22.2411 14.1708L22.4272 15.118L21.4524 14.6708Z" clip-rule="evenodd"/><path id="Star 10_2" fill="#4564F9" fill-rule="evenodd" d="M14.6077 12.5029L13.6328 12.9501L13.819 12.0029L13.0303 11.2629H14.1202L14.6077 10.332L15.0951 11.2629H16.185L15.3963 12.0029L15.5825 12.9501L14.6077 12.5029Z" clip-rule="evenodd"/><path id="Star 10_3" fill="#4564F9" fill-rule="evenodd" d="M14.6077 16.703L13.6328 17.1503L13.819 16.203L13.0303 15.4631H14.1202L14.6077 14.5322L15.0951 15.4631H16.185L15.3963 16.203L15.5825 17.1503L14.6077 16.703Z" clip-rule="evenodd"/><path id="Star 10_4" fill="#4564F9" fill-rule="evenodd" d="M28.1077 12.5029L27.1328 12.9501L27.319 12.0029L26.5303 11.2629H27.6202L28.1077 10.332L28.5951 11.2629H29.685L28.8963 12.0029L29.0825 12.9501L28.1077 12.5029Z" clip-rule="evenodd"/><path id="Star 10_5" fill="#4564F9" fill-rule="evenodd" d="M28.1077 16.703L27.1328 17.1503L27.319 16.203L26.5303 15.4631H27.6202L28.1077 14.5322L28.5951 15.4631H29.685L28.8963 16.203L29.0825 17.1503L28.1077 16.703Z" clip-rule="evenodd"/></g></g></g></g></g></g></g><defs><filter id="filter0_dd_91_27723" width="42" height="30" x="0" y="0" color-interpolation-filters="sRGB" filterUnits="userSpaceOnUse"><feFlood flood-opacity="0" result="BackgroundImageFix"/><feColorMatrix in="SourceAlpha" result="hardAlpha" values="0 0 0 0 0 0 0 0 0 0 0 0 0 0 0 0 0 0 127 0"/><feOffset dy="1"/><feGaussianBlur stdDeviation="1"/><feColorMatrix values="0 0 0 0 0.0627451 0 0 0 0 0.0941176 0 0 0 0 0.156863 0 0 0 0.06 0"/><feBlend in2="BackgroundImageFix" result="effect1_dropShadow_91_27723"/><feColorMatrix in="SourceAlpha" result="hardAlpha" values="0 0 0 0 0 0 0 0 0 0 0 0 0 0 0 0 0 0 127 0"/><feOffset dy="1"/><feGaussianBlur stdDeviation="1.5"/><feColorMatrix values="0 0 0 0 0.0627451 0 0 0 0 0.0941176 0 0 0 0 0.156863 0 0 0 0.1 0"/><feBlend in2="effect1_dropShadow_91_27723" result="effect2_dropShadow_91_27723"/><feBlend in="SourceGraphic" in2="effect2_dropShadow_91_27723" result="shape"/></filter><clipPath id="clip0_91_27723"><rect width="36" height="24" x="3" y="2" fill="white" rx="2"/></clipPath></defs></svg>

<svg xmlns="http://www.w3.org/2000/svg" fill="none" aria-hidden="true" viewBox="0 0 42 30"><g filter="url(#a)"><g clip-path="url(#b)"><mask id="c" width="36" height="24" x="3" y="2" maskUnits="userSpaceOnUse" style="mask-type:alpha"><path fill="#fff" d="M3 2h36v24H3z"/></mask><g mask="url(#c)"><path fill="#F7FCFF" fill-rule="evenodd" d="M3 2v24h36V2H3Z" clip-rule="evenodd"/><mask id="d" width="36" height="24" x="3" y="2" maskUnits="userSpaceOnUse" style="mask-type:alpha"><path fill="#fff" fill-rule="evenodd" d="M3 2v24h36V2H3Z" clip-rule="evenodd"/></mask><g fill="#4564F9" fill-rule="evenodd" clip-rule="evenodd" mask="url(#d)"><path d="M3 2v8h36V2H3Zm0 16v8h36v-8H3Zm18.452-3.33-.975.448.187-.947-.789-.74h1.09l.487-.931.488.93h1.09l-.789.74.186.948-.975-.447Zm-6.844-2.167-.975.447.186-.947-.789-.74h1.09l.488-.931.487.93h1.09l-.789.74.186.948-.974-.447Zm0 4.2-.975.447.186-.947-.789-.74h1.09l.488-.93.487.93h1.09l-.789.74.186.947-.974-.447Zm13.5-4.2-.975.447.186-.947-.789-.74h1.09l.488-.931.487.93h1.09l-.789.74.186.948-.974-.447Zm0 4.2-.975.447.186-.947-.789-.74h1.09l.488-.93.487.93h1.09l-.789.74.186.947-.974-.447Z"/></g></g></g></g><defs><clipPath id="b"><rect width="36" height="24" x="3" y="2" fill="#fff" rx="2"/></clipPath><filter id="a" width="42" height="30" x="0" y="0" color-interpolation-filters="sRGB" filterUnits="userSpaceOnUse"><feFlood flood-opacity="0" result="BackgroundImageFix"/><feColorMatrix in="SourceAlpha" result="hardAlpha" values="0 0 0 0 0 0 0 0 0 0 0 0 0 0 0 0 0 0 127 0"/><feOffset dy="1"/><feGaussianBlur stdDeviation="1"/><feColorMatrix values="0 0 0 0 0.0627451 0 0 0 0 0.0941176 0 0 0 0 0.156863 0 0 0 0.06 0"/><feBlend in2="BackgroundImageFix" result="effect1_dropShadow_91_27723"/><feColorMatrix in="SourceAlpha" result="hardAlpha" values="0 0 0 0 0 0 0 0 0 0 0 0 0 0 0 0 0 0 127 0"/><feOffset dy="1"/><feGaussianBlur stdDeviation="1.5"/><feColorMatrix values="0 0 0 0 0.0627451 0 0 0 0 0.0941176 0 0 0 0 0.156863 0 0 0 0.1 0"/><feBlend in2="effect1_dropShadow_91_27723" result="effect2_dropShadow_91_27723"/><feBlend in="SourceGraphic" in2="effect2_dropShadow_91_27723" result="shape"/></filter></defs></svg>
